svgs/light/transporter-6.svg

<svg xmlns="http://www.w3.org/2000/svg" viewBox="0 0 512 512"><!--! Font Awesome Pro 6.0.0-alpha3 by @fontawesome - https://fontawesome.com License - https://fontawesome.com/license (Commercial License) --><path d="M112 288h288C408.8 288 416 280.8 416 272S408.8 256 400 256h-288C103.2 256 96 263.2 96 272S103.2 288 112 288zM224 32h64c8.844 0 16-7.156 16-16S296.8 0 288 0H224C215.2 0 208 7.156 208 16S215.2 32 224 32zM80 32H64V16C64 7.156 56.84 0 48 0S32 7.156 32 16V32H16C7.156 32 0 39.16 0 48S7.156 64 16 64H32v16C32 88.84 39.16 96 48 96S64 88.84 64 80V64h16C88.84 64 96 56.84 96 48S88.84 32 80 32zM496 384H480v-16c0-8.844-7.156-16-16-16S448 359.2 448 368V384h-16c-8.844 0-16 7.156-16 16s7.156 16 16 16H448v16c0 8.844 7.156 16 16 16s16-7.156 16-16V416h16c8.844 0 16-7.156 16-16S504.8 384 496 384zM368 448h-224C117.5 448 96 469.5 96 496C96 504.8 103.2 512 112 512S128 504.8 128 496C128 487.2 135.2 480 144 480h224c8.828 0 16 7.172 16 16c0 8.844 7.156 16 16 16s16-7.156 16-16C416 469.5 394.5 448 368 448z"/></svg>

<svg xmlns="http://www.w3.org/2000/svg" viewBox="0 0 512 512"><!-- Font Awesome Pro 6.0.0-alpha2 by @fontawesome - https://fontawesome.com License - https://fontawesome.com/license (Commercial License) --><path d="M112 288H400C408.844 288 416 280.844 416 272S408.844 256 400 256H112C103.156 256 96 263.156 96 272S103.156 288 112 288ZM224 32H288C296.844 32 304 24.844 304 16S296.844 0 288 0H224C215.156 0 208 7.156 208 16S215.156 32 224 32ZM80 32H64V16C64 7.156 56.844 0 48 0S32 7.156 32 16V32H16C7.156 32 0 39.156 0 48S7.156 64 16 64H32V80C32 88.844 39.156 96 48 96S64 88.844 64 80V64H80C88.844 64 96 56.844 96 48S88.844 32 80 32ZM496 384H480V368C480 359.156 472.844 352 464 352S448 359.156 448 368V384H432C423.156 384 416 391.156 416 400S423.156 416 432 416H448V432C448 440.844 455.156 448 464 448S480 440.844 480 432V416H496C504.844 416 512 408.844 512 400S504.844 384 496 384ZM368 448H144C117.531 448 96 469.531 96 496C96 504.844 103.156 512 112 512S128 504.844 128 496C128 487.172 135.172 480 144 480H368C376.828 480 384 487.172 384 496C384 504.844 391.156 512 400 512S416 504.844 416 496C416 469.531 394.469 448 368 448Z"/></svg>
